images/logo-dark.svg

<svg xmlns="http://www.w3.org/2000/svg" width="139" height="20"><defs><linearGradient id="a" x1="72.195%" x2="17.503%" y1="0%" y2="100%"><stop offset="0%" stop-color="#33D35E"/><stop offset="100%" stop-color="#2AB6D9"/></linearGradient></defs><g fill="none" fill-rule="evenodd"><path fill="#ffffff" fill-rule="nonzero" d="M37.754 15.847c2.852 0 5.152-1.622 5.952-4.216h-3.897c-.376.665-1.14 1.066-2.055 1.066-1.237 0-2.065-.674-2.32-1.978h8.44c.051-.352.081-.694.081-1.037 0-3.335-2.537-5.95-6.201-5.95-3.568 0-6.175 2.564-6.175 6.049 0 3.473 2.628 6.066 6.175 6.066zm2.344-7.297h-4.596c.317-1.129 1.11-1.749 2.252-1.749 1.181 0 2 .613 2.344 1.75zm10.946 7.296c1.32 0 2.5-.434 3.43-1.188l.336.804h3.027V4.093h-2.919l-.4.88c-.94-.775-2.135-1.222-3.474-1.222-3.476 0-5.961 2.505-5.961 6.026 0 3.533 2.485 6.07 5.961 6.07zm.524-3.467c-1.467 0-2.545-1.108-2.545-2.593 0-1.475 1.069-2.583 2.545-2.583 1.466 0 2.544 1.108 2.544 2.583 0 1.485-1.078 2.593-2.544 2.593zm13.123 3.467c3.02 0 5.025-1.554 5.025-3.93 0-2.883-2.387-3.256-4.183-3.575-1.08-.193-1.95-.344-1.95-.99 0-.527.422-.838 1.05-.838.71 0 1.197.337 1.197 1.063h3.667c-.044-2.303-1.92-3.843-4.816-3.843-2.912 0-4.854 1.47-4.854 3.75 0 2.757 2.337 3.289 4.1 3.574 1.092.181 1.952.368 1.952 1.024 0 .587-.543.88-1.116.88-.742 0-1.32-.383-1.32-1.214h-3.77c.036 2.463 1.919 4.1 5.018 4.1zm8.1 3.858c2.936 0 4.344-1.257 5.877-4.736l4.764-10.863h-4.206l-2.249 6.263-2.412-6.263H70.31l4.698 10.43c-.53 1.414-.983 1.804-2.48 1.804H71.45v3.365h1.341zm18.504-3.858c3.5 0 5.973-2.515 5.973-6.048S94.796 3.75 91.295 3.75a5.332 5.332 0 00-2.825.784V0H84.6v15.474h2.897l.37-.844c.923.771 2.102 1.216 3.428 1.216zm-.523-3.467c-1.467 0-2.545-1.108-2.545-2.58 0-1.486 1.078-2.594 2.545-2.594 1.466 0 2.544 1.108 2.544 2.593 0 1.473-1.087 2.58-2.544 2.58zm13.598 3.467c1.32 0 2.5-.434 3.43-1.188l.336.804h3.027V4.093h-2.918l-.401.88c-.939-.775-2.135-1.222-3.474-1.222-3.476 0-5.96 2.505-5.96 6.026 0 3.533 2.484 6.07 5.96 6.07zm.524-3.467c-1.467 0-2.545-1.108-2.545-2.593 0-1.475 1.07-2.583 2.545-2.583 1.467 0 2.545 1.108 2.545 2.583 0 1.485-1.078 2.593-2.545 2.593zm12.653 3.095V9.403c0-1.447.702-2.3 1.923-2.3.986 0 1.483.657 1.483 1.98v6.39h3.915V8.543c0-2.897-1.733-4.773-4.373-4.773-1.47 0-2.733.565-3.58 1.508l-.537-1.172h-2.747v11.369h3.916zm13.748 0v-4.808l2.848 4.808h4.616l-3.902-5.95 3.543-5.419h-4.397l-2.708 4.454V0h-3.916v15.474h3.916z"/><g fill="url(#a)"><path d="M10.802 0L0 19.704h5.986L16.789 0z"/><path opacity=".5" d="M18.171 0L7.368 19.704h5.986L24.157 0z"/><path opacity=".15" d="M25.539 0L14.737 19.704h5.986L31.525 0z"/></g></g></svg>

<?xml version="1.0" encoding="UTF-8"?>
<svg width="139px" height="20px" viewBox="0 0 139 20" xmlns="http://www.w3.org/2000/svg" xmlns:xlink="http://www.w3.org/1999/xlink" version="1.1">
 <!-- Generated by Pixelmator Pro 2.2 -->
 <g id="group">
  <path id="Path" d="M37.754 15.847 C40.606 15.847 42.906 14.225 43.706 11.631 L39.809 11.631 C39.433 12.296 38.669 12.697 37.754 12.697 36.517 12.697 35.689 12.023 35.434 10.719 L43.874 10.719 C43.925 10.367 43.955 10.025 43.955 9.682 43.955 6.347 41.418 3.732 37.754 3.732 34.186 3.732 31.579 6.296 31.579 9.781 31.579 13.254 34.207 15.847 37.754 15.847 Z M40.098 8.55 L35.502 8.55 C35.819 7.421 36.612 6.801 37.754 6.801 38.935 6.801 39.754 7.414 40.098 8.551 Z M51.044 15.846 C52.364 15.846 53.544 15.412 54.474 14.658 L54.81 15.462 57.837 15.462 57.837 4.093 54.918 4.093 54.518 4.973 C53.578 4.198 52.383 3.751 51.044 3.751 47.568 3.751 45.083 6.256 45.083 9.777 45.083 13.31 47.568 15.847 51.044 15.847 Z M51.568 12.379 C50.101 12.379 49.023 11.271 49.023 9.786 49.023 8.311 50.092 7.203 51.568 7.203 53.034 7.203 54.112 8.311 54.112 9.786 54.112 11.271 53.034 12.379 51.568 12.379 Z M64.691 15.846 C67.711 15.846 69.716 14.292 69.716 11.916 69.716 9.033 67.329 8.66 65.533 8.341 64.453 8.148 63.583 7.997 63.583 7.351 63.583 6.824 64.005 6.513 64.633 6.513 65.343 6.513 65.83 6.85 65.83 7.576 L69.497 7.576 C69.453 5.273 67.577 3.733 64.681 3.733 61.769 3.733 59.827 5.203 59.827 7.483 59.827 10.24 62.164 10.772 63.927 11.057 65.019 11.238 65.879 11.425 65.879 12.081 65.879 12.668 65.336 12.961 64.763 12.961 64.021 12.961 63.443 12.578 63.443 11.747 L59.673 11.747 C59.709 14.21 61.592 15.847 64.691 15.847 Z M72.791 19.704 C75.727 19.704 77.135 18.447 78.668 14.968 L83.432 4.105 79.226 4.105 76.977 10.368 74.565 4.105 70.31 4.105 75.008 14.535 C74.478 15.949 74.025 16.339 72.528 16.339 L71.45 16.339 71.45 19.704 Z M91.295 15.846 C94.795 15.846 97.268 13.331 97.268 9.798 97.268 6.265 94.796 3.75 91.295 3.75 90.299 3.742 89.32 4.014 88.47 4.534 L88.47 0 84.6 0 84.6 15.474 87.497 15.474 87.867 14.63 C88.79 15.401 89.969 15.846 91.295 15.846 Z M90.772 12.379 C89.305 12.379 88.227 11.271 88.227 9.799 88.227 8.313 89.305 7.205 90.772 7.205 92.238 7.205 93.316 8.313 93.316 9.798 93.316 11.271 92.229 12.378 90.772 12.378 Z M104.37 15.846 C105.69 15.846 106.87 15.412 107.8 14.658 L108.136 15.462 111.163 15.462 111.163 4.093 108.245 4.093 107.844 4.973 C106.905 4.198 105.709 3.751 104.37 3.751 100.894 3.751 98.41 6.256 98.41 9.777 98.41 13.31 100.894 15.847 104.37 15.847 Z M104.894 12.379 C103.427 12.379 102.349 11.271 102.349 9.786 102.349 8.311 103.419 7.203 104.894 7.203 106.361 7.203 107.439 8.311 107.439 9.786 107.439 11.271 106.361 12.379 104.894 12.379 Z M117.547 15.474 L117.547 9.403 C117.547 7.956 118.249 7.103 119.47 7.103 120.456 7.103 120.953 7.76 120.953 9.083 L120.953 15.473 124.868 15.473 124.868 8.543 C124.868 5.646 123.135 3.77 120.495 3.77 119.025 3.77 117.762 4.335 116.915 5.278 L116.378 4.106 113.631 4.106 113.631 15.475 117.547 15.475 Z M131.295 15.474 L131.295 10.666 134.143 15.474 138.759 15.474 134.857 9.524 138.4 4.105 134.003 4.105 131.295 8.559 131.295 0 127.379 0 127.379 15.474 Z" fill="#ffffff" fill-opacity="1" stroke="none"/>
  <g id="group-1">
   <defs>
    <linearGradient id="linear-gradient" gradientUnits="userSpaceOnUse" x1="12.121" y1="0" x2="2.939" y2="16.789">
     <stop offset="0" stop-color="#33d35e" stop-opacity="1"/>
     <stop offset="1" stop-color="#2ab6d9" stop-opacity="1"/>
    </linearGradient>
   </defs>
   <path id="Path-1" d="M10.802 0 L0 19.704 5.986 19.704 16.789 0 Z" fill-opacity="1" fill="url(#linear-gradient)" stroke="none"/>
   <defs>
    <linearGradient id="linear-gradient-1" gradientUnits="userSpaceOnUse" x1="19.489" y1="7.368" x2="10.307" y2="24.157">
     <stop offset="0" stop-color="#33d35e" stop-opacity="1"/>
     <stop offset="1" stop-color="#2ab6d9" stop-opacity="1"/>
    </linearGradient>
   </defs>
   <path id="Path-2" d="M18.171 0 L7.368 19.704 13.354 19.704 24.157 0 Z" fill-opacity="1" fill="url(#linear-gradient-1)" stroke="none"/>
   <defs>
    <linearGradient id="linear-gradient-2" gradientUnits="userSpaceOnUse" x1="26.857" y1="14.737" x2="17.675" y2="31.525">
     <stop offset="0" stop-color="#33d35e" stop-opacity="1"/>
     <stop offset="1" stop-color="#2ab6d9" stop-opacity="1"/>
    </linearGradient>
   </defs>
   <path id="Path-3" d="M25.539 0 L14.737 19.704 20.723 19.704 31.525 0 Z" fill-opacity="1" fill="url(#linear-gradient-2)" stroke="none"/>
  </g>
 </g>
</svg>
